!!!COM: Bach, Johann Sebastian
!!!CDT: 1685/02/21/-1750/07/28/
!!!OTL@@DE:	Was mein Gott will, das g'scheh allzeit
!!!SCT: BWV 65/7
!!!PC#:	41
!!!AGN: chorale
**harm	**kern	**kern	**kern	**kern
*	*ICvox	*ICvox	*ICvox	*ICvox
*	*Ibass	*Itenor	*Ialto	*Isoprn
*	*I"Bass	*I"Tenor	*I"Alto	*I"Soprano
*>[A,A,B]	*>[A,A,B]	*>[A,A,B]	*>[A,A,B]	*>[A,A,B]
*>norep[A,B]	*>norep[A,B]	*>norep[A,B]	*>norep[A,B]	*>norep[A,B]
*>A	*>A	*>A	*>A	*>A
*	*	*oclefC4	*oclefC3	*oclefC1
*	*clefF4	*clefGv2	*clefG2	*clefG2
*k[]	*k[]	*k[]	*k[]	*k[]
*a:	*a:	*a:	*a:	*a:
*M4/4	*M4/4	*M4/4	*M4/4	*M4/4
*met(c)	*met(c)	*met(c)	*met(c)	*met(c)
*MM100	*MM100	*MM100	*MM100	*MM100
i	4AA	4A	4c	4e
=1	=1	=1	=1	=1
v	4E	4B	4e	4g
VI	4F	4A	4c	4a
I	4C	4c	4e	4g
I6	4E	4c	4g	4cc
=2	=2	=2	=2	=2
V(64)	4G	4e	4g	4cc
V	4GG	4d	4g	4b
I;	4C;	4e;	4g;	4cc;
I	4C	4e	4g	4cc
=3	=3	=3	=3	=3
V	4G	4d	4g	4b
a:iv	4D	4d	4f	4a
iv6	4F	4A	4a	4dd
i	4A	4e	4a	4cc
=4	=4	=4	=4	=4
V	8EL	8eL	8g#L	8bL
V2	8DJ	8eJ	8g#J	8bJ
i6	8CL	8eL	8aL	8ccL
i	8AAJ	8eJ	8aJ	8ccJ
V7	2E	2e	2g#	2b
=5	=5	=5	=5	=5
i;	2.AA;	2.c;	2.e;	2.a;
*>B	*>B	*>B	*>B	*>B
i	4A	4c	4e	4a
=6	=6	=6	=6	=6
G:V6	4F#	4A	4d	4a
V	4D	4d	4f#	4a
I	4.G	4.d	4.g	4.b
viio6/vi	8F#J	8d#	8a	8a
=7	=7	=7	=7	=7
vi	4E	4e	4g	4b
vi	4E	4B	4e	4g
ii65	4C	4A	4e	4g
V	4D	4A	4d	4f#
=8	=8	=8	=8	=8
I;	4GG;	4B;	4d;	4g;
IV	4C	4c	4e	4g
viio64	4c	4A	4f#	4a
a:viio7	4G#	4d	4f	4b
=9	=9	=9	=9	=9
i	4A	4c	4e	4cc
V	8EL	8eL	8g#L	8bL
V2	8DJ	8eJ	8g#J	8bJ
i6	4C	4e	4a	4a
i	8AAL	8cL	8aL	8aL
viio64/V	8AAJ	8F#J	8d#J	8aJ
=10	=10	=10	=10	=10
V;	4E;	4G#;	4e;	4b;
e:i	4E	4G	4B	4e
i	4E	4B	4e	4gnX
viio7	4D#	4c	4f#	4a
=11	=11	=11	=11	=11
i	4E	4B	4e	4g
G:ii	8AL	8cL	8eL	8ccL
ii2	8GJ	8cJ	8eJ	8ccJ
V65	4F#	4d	4a	4cc
I	4G	4d	4g	4b
=12	=12	=12	=12	=12
IV;	4C;	4e;	4g;	4cc;
a:i	4AA	4e	4a	4cc
ii%65	8DL	8fL	8aL	8bL
v	8EJ	8eJ	8gJ	8bJ
iv6	4F	4d	4f	4a
=13	=13	=13	=13	=13
iio	4BB	4d	4f	4dd
iio6	4D	4B	4f	4dd
V65	4GG#	4e	4d	4b
i	4AA	4e	4c	4cc
=14	=14	=14	=14	=14
V	2E	2G#	2e	2b
I;	4AA;	4c#;	4e;	4a;
==	==	==	==	==
*-	*-	*-	*-	*-
!!!YOR1: 371 vierstimmige Choralges&auml;nge von Johann Sebastian Bach, 
!!!YOR2: 4th ed. by Alfred D&ouml;rffel (Leipzig: Breitkopf und H&auml;rtel, 
!!!YOR2: c.1875). 178 pp. Plate "V.A.10".  reprint: J.S. Bach, 371 Four-Part 
!!!YOR4: Chorales (New York: Associated Music Publishers, Inc., c.1940).
!!!SMS: B&H, 4th ed, Alfred D&ouml;rffel, c.1875, plate V.A.10
!!!EED:  Craig Stuart Sapp
!!!EEV:  2009/05/22
